packages/core/src/svgs/dcr.svg

<svg width="24" height="24" viewBox="0 0 24 24" fill="none" xmlns="http://www.w3.org/2000/svg">
<g clip-path="url(#clip0_31_9049)">
<path d="M0 0H24V24H0V0Z" fill="#2970FF"/>
<path d="M11.175 13.2448H14.5672C15.78 13.2371 16.8506 12.2582 16.8463 11.0218C16.8506 9.78493 15.7805 8.57893 14.5672 8.57122H13.485L11.175 6.85693H14.5672C15.5632 6.86036 16.5275 7.19722 17.2946 7.81093C18.0559 8.41514 18.5794 9.26874 18.7728 10.2212C18.9669 11.1706 18.8139 12.1582 18.3416 13.0044C17.8685 13.8555 17.1043 14.5219 16.1786 14.8901L18.8572 17.1426H15.7873L11.175 13.2448Z" fill="white"/>
<path d="M9.44054 10.7141H12.8177L8.21268 6.85693H5.14282L7.82139 9.10951C6.89739 9.47722 6.13411 10.1424 5.66139 10.9922C4.69368 12.7305 5.15997 14.9505 6.70625 16.1878C7.4835 16.8061 8.44736 17.1427 9.44054 17.1426H12.825L10.515 15.4284H9.44054C7.89897 15.4232 6.69682 13.6082 7.32511 12.1296C7.66668 11.3256 8.55811 10.7171 9.44054 10.7141Z" fill="white"/>
</g>
<defs>
<clipPath id="clip0_31_9049">
<rect width="24" height="24" fill="white"/>
</clipPath>
</defs>
</svg>

<svg xmlns="http://www.w3.org/2000/svg" width="24" height="24" fill="none" viewBox="0 0 24 24"><g clip-path="url(#a)"><path fill="#2970FF" d="M0 0h24v24H0z"/><path fill="#fff" d="M11.175 13.245h3.392c1.213-.008 2.284-.987 2.28-2.223.004-1.237-1.067-2.443-2.28-2.45h-1.082l-2.31-1.715h3.392c.996.003 1.96.34 2.728.954a4.13 4.13 0 0 1 1.478 2.41c.194.95.04 1.937-.431 2.783a4.27 4.27 0 0 1-2.163 1.886l2.678 2.253h-3.07z"/><path fill="#fff" d="M9.44 10.714h3.378L8.213 6.857h-3.07L7.82 9.11a4.27 4.27 0 0 0-2.16 1.882c-.967 1.738-.501 3.958 1.045 5.196a4.4 4.4 0 0 0 2.735.955h3.384l-2.31-1.715H9.441c-1.542-.005-2.744-1.82-2.116-3.298.342-.804 1.233-1.413 2.116-1.416"/></g><defs><clipPath id="a"><path fill="#fff" d="M0 0h24v24H0z"/></clipPath></defs></svg>
